img/icons/apartment.svg

<svg width="24" height="24" fill="none" xmlns="http://www.w3.org/2000/svg"><path d="M17 11V5c0-1.1-.9-2-2-2H9c-1.1 0-2 .9-2 2v2H5c-1.1 0-2 .9-2 2v10c0 1.1.9 2 2 2h6v-4h2v4h6c1.1 0 2-.9 2-2v-6c0-1.1-.9-2-2-2h-2zM7 19H5v-2h2v2zm0-4H5v-2h2v2zm0-4H5V9h2v2zm4 4H9v-2h2v2zm0-4H9V9h2v2zm0-4H9V5h2v2zm4 8h-2v-2h2v2zm0-4h-2V9h2v2zm0-4h-2V5h2v2zm4 12h-2v-2h2v2zm0-4h-2v-2h2v2z" fill="#888B97"/></svg>

<svg width="24" height="24" viewBox="0 0 24 24" fill="none" xmlns="http://www.w3.org/2000/svg">
<path d="M17 11V5C17 3.9 16.1 3 15 3H9C7.9 3 7 3.9 7 5V7H5C3.9 7 3 7.9 3 9V19C3 20.1 3.9 21 5 21H11V17H13V21H19C20.1 21 21 20.1 21 19V13C21 11.9 20.1 11 19 11H17ZM7 19H5V17H7V19ZM7 15H5V13H7V15ZM7 11H5V9H7V11ZM11 15H9V13H11V15ZM11 11H9V9H11V11ZM11 7H9V5H11V7ZM15 15H13V13H15V15ZM15 11H13V9H15V11ZM15 7H13V5H15V7ZM19 19H17V17H19V19ZM19 15H17V13H19V15Z" fill="#888B97"/>
</svg>
